project/frontend/src/assets/img/logo.svg

<svg width="356" height="95" viewBox="0 0 356 95" fill="none" xmlns="http://www.w3.org/2000/svg">
<path d="M15.9646 15.9705L75.7523 15.9705C78.3951 15.9705 80.9296 17.0203 82.7983 18.889C84.667 20.7578 85.7169 23.2923 85.7169 25.9351L85.7169 70.7758C85.7169 72.0972 85.192 73.3645 84.2576 74.2988C83.3232 75.2332 82.056 75.7581 80.7346 75.7581L70.77 75.7581C69.4486 75.7581 68.1813 75.2332 67.2469 74.2988C66.3126 73.3645 65.7877 72.0972 65.7877 70.7758V60.8112C65.7877 55.5256 63.688 50.4566 59.9505 46.7191C56.2131 42.9817 51.144 40.882 45.8584 40.882C40.5729 40.882 35.5038 42.9817 31.7664 46.7191C28.0289 50.4566 25.9292 55.5256 25.9292 60.8112V70.7758C25.9292 72.0972 25.4043 73.3645 24.4699 74.2988C23.5356 75.2332 22.2683 75.7581 20.9469 75.7581H10.9823C9.66092 75.7581 8.39365 75.2332 7.45928 74.2988C6.52492 73.3645 6 72.0972 6 70.7758L6 25.9351C6 23.2923 7.04984 20.7578 8.91857 18.889C10.7873 17.0203 13.3218 15.9705 15.9646 15.9705" fill="white"/>
<path d="M15.9646 15.9705L75.7523 15.9705C78.3951 15.9705 80.9296 17.0203 82.7983 18.889C84.667 20.7578 85.7169 23.2923 85.7169 25.9351L85.7169 70.7758C85.7169 72.0972 85.192 73.3645 84.2576 74.2988C83.3232 75.2332 82.056 75.7581 80.7346 75.7581L70.77 75.7581C69.4486 75.7581 68.1813 75.2332 67.2469 74.2988C66.3126 73.3645 65.7877 72.0972 65.7877 70.7758V60.8112C65.7877 55.5256 63.688 50.4566 59.9505 46.7191C56.2131 42.9817 51.144 40.882 45.8584 40.882C40.5729 40.882 35.5038 42.9817 31.7664 46.7191C28.0289 50.4566 25.9292 55.5256 25.9292 60.8112V70.7758C25.9292 72.0972 25.4043 73.3645 24.4699 74.2988C23.5356 75.2332 22.2683 75.7581 20.9469 75.7581H10.9823C9.66092 75.7581 8.39365 75.2332 7.45928 74.2988C6.52492 73.3645 6 72.0972 6 70.7758L6 25.9351C6 23.2923 7.04984 20.7578 8.91857 18.889C10.7873 17.0203 13.3218 15.9705 15.9646 15.9705" stroke="white" stroke-width="11.2689" stroke-linecap="round" stroke-linejoin="round"/>
<path d="M110.701 75V18.3645H133.377C137.544 18.3645 141.019 18.9821 143.803 20.2173C146.586 21.4526 148.679 23.1671 150.08 25.361C151.481 27.5364 152.182 30.0437 152.182 32.8829C152.182 35.0952 151.739 37.0402 150.854 38.7179C149.969 40.3771 148.753 41.7414 147.204 42.8107C145.674 43.8615 143.922 44.6082 141.95 45.0507V45.6038C144.107 45.6959 146.126 46.3043 148.006 47.4289C149.905 48.5535 151.444 50.1298 152.624 52.1578C153.804 54.1673 154.394 56.564 154.394 59.3478C154.394 62.3529 153.647 65.0353 152.154 67.3951C150.679 69.7365 148.495 71.5893 145.6 72.9536C142.706 74.3179 139.138 75 134.898 75H110.701ZM122.675 65.2105H132.437C135.774 65.2105 138.207 64.5744 139.737 63.3023C141.268 62.0118 142.033 60.2973 142.033 58.1587C142.033 56.5916 141.655 55.2089 140.899 54.0106C140.143 52.8122 139.065 51.872 137.663 51.1899C136.281 50.5077 134.631 50.1667 132.713 50.1667H122.675V65.2105ZM122.675 42.064H131.552C133.193 42.064 134.649 41.7783 135.921 41.2068C137.212 40.6168 138.226 39.7872 138.963 38.7179C139.719 37.6486 140.097 36.3673 140.097 34.874C140.097 32.8276 139.369 31.1776 137.912 29.9239C136.474 28.6703 134.428 28.0434 131.773 28.0434H122.675V42.064ZM161.964 75V32.5234H173.386V39.9347H173.828C174.602 37.2983 175.902 35.3072 177.727 33.9614C179.552 32.5971 181.654 31.915 184.032 31.915C184.622 31.915 185.258 31.9519 185.94 32.0256C186.623 32.0994 187.222 32.2008 187.738 32.3298V42.783C187.185 42.6171 186.42 42.4696 185.443 42.3406C184.466 42.2115 183.571 42.147 182.76 42.147C181.027 42.147 179.479 42.5249 178.114 43.2808C176.769 44.0183 175.699 45.0507 174.907 46.3781C174.132 47.7055 173.745 49.2356 173.745 50.9686V75H161.964ZM193.829 75V32.5234H205.609V75H193.829ZM199.747 27.0479C197.995 27.0479 196.493 26.4672 195.239 25.3057C194.004 24.1258 193.386 22.7154 193.386 21.0746C193.386 19.4522 194.004 18.0603 195.239 16.8989C196.493 15.7189 197.995 15.129 199.747 15.129C201.498 15.129 202.992 15.7189 204.227 16.8989C205.48 18.0603 206.107 19.4522 206.107 21.0746C206.107 22.7154 205.48 24.1258 204.227 25.3057C202.992 26.4672 201.498 27.0479 199.747 27.0479ZM230.699 75.6914C227.472 75.6914 224.55 74.8617 221.932 73.2025C219.333 71.5248 217.268 69.0636 215.738 65.8189C214.226 62.5557 213.47 58.5551 213.47 53.817C213.47 48.9499 214.254 44.9032 215.821 41.6769C217.388 38.4321 219.471 36.0078 222.07 34.4039C224.688 32.7815 227.555 31.9703 230.671 31.9703C233.049 31.9703 235.031 32.3759 236.617 33.1871C238.22 33.9798 239.511 34.9754 240.488 36.1737C241.484 37.3536 242.24 38.5151 242.756 39.6581H243.115V18.3645H254.868V75H243.253V68.1971H242.756C242.203 69.377 241.419 70.5477 240.405 71.7092C239.41 72.8522 238.11 73.8017 236.506 74.5575C234.92 75.3134 232.985 75.6914 230.699 75.6914ZM234.432 66.3166C236.331 66.3166 237.935 65.8004 239.244 64.768C240.571 63.7171 241.585 62.2515 242.286 60.371C243.005 58.4905 243.364 56.2874 243.364 53.7617C243.364 51.236 243.014 49.0421 242.313 47.18C241.613 45.318 240.599 43.88 239.271 42.866C237.944 41.852 236.331 41.345 234.432 41.345C232.496 41.345 230.864 41.8705 229.537 42.9213C228.21 43.9722 227.205 45.4286 226.523 47.2906C225.841 49.1527 225.5 51.3097 225.5 53.7617C225.5 56.2321 225.841 58.4168 226.523 60.3157C227.223 62.1962 228.228 63.6711 229.537 64.7404C230.864 65.7912 232.496 66.3166 234.432 66.3166ZM283.691 91.8137C279.874 91.8137 276.602 91.2882 273.873 90.2374C271.163 89.205 269.006 87.7946 267.402 86.0063C265.798 84.218 264.757 82.2085 264.277 79.9777L275.173 78.5121C275.505 79.3601 276.03 80.1529 276.749 80.8903C277.468 81.6278 278.418 82.2177 279.598 82.6602C280.796 83.1211 282.253 83.3515 283.967 83.3515C286.53 83.3515 288.641 82.7247 290.3 81.471C291.978 80.2358 292.816 78.1618 292.816 75.2489V67.4781H292.319C291.802 68.658 291.028 69.7734 289.996 70.8242C288.963 71.8751 287.636 72.7324 286.014 73.3961C284.391 74.0598 282.455 74.3916 280.206 74.3916C277.017 74.3916 274.113 73.6542 271.495 72.1793C268.896 70.686 266.822 68.4091 265.273 65.3487C263.743 62.2699 262.978 58.3799 262.978 53.6787C262.978 48.8669 263.761 44.8479 265.328 41.6216C266.895 38.3953 268.979 35.9801 271.578 34.3762C274.196 32.7723 277.063 31.9703 280.179 31.9703C282.557 31.9703 284.548 32.3759 286.152 33.1871C287.756 33.9798 289.046 34.9754 290.023 36.1737C291.019 37.3536 291.784 38.5151 292.319 39.6581H292.761V32.5234H304.459V75.4148C304.459 79.0283 303.574 82.0518 301.804 84.4853C300.034 86.9189 297.582 88.7441 294.448 89.9608C291.332 91.1961 287.747 91.8137 283.691 91.8137ZM283.94 65.5423C285.838 65.5423 287.442 65.0722 288.751 64.132C290.079 63.1733 291.093 61.809 291.793 60.0392C292.512 58.2509 292.872 56.1123 292.872 53.6234C292.872 51.1346 292.521 48.9775 291.821 47.1524C291.12 45.3088 290.106 43.88 288.779 42.866C287.452 41.852 285.838 41.345 283.94 41.345C282.004 41.345 280.372 41.8705 279.045 42.9213C277.717 43.9537 276.713 45.3917 276.03 47.2353C275.348 49.0789 275.007 51.2083 275.007 53.6234C275.007 56.0754 275.348 58.1956 276.03 59.9839C276.731 61.7537 277.736 63.1272 279.045 64.1043C280.372 65.063 282.004 65.5423 283.94 65.5423ZM333.191 75.8296C328.822 75.8296 325.061 74.9447 321.909 73.1748C318.774 71.3865 316.359 68.8608 314.663 65.5976C312.967 62.316 312.119 58.4352 312.119 53.9553C312.119 49.5859 312.967 45.7512 314.663 42.4512C316.359 39.1511 318.747 36.5793 321.826 34.7357C324.923 32.8921 328.555 31.9703 332.721 31.9703C335.524 31.9703 338.132 32.422 340.547 33.3254C342.981 34.2103 345.101 35.5469 346.908 37.3352C348.733 39.1235 350.153 41.3727 351.166 44.0828C352.18 46.7744 352.687 49.927 352.687 53.5405V56.776H316.82V49.4753H341.598C341.598 47.7792 341.229 46.2767 340.492 44.9677C339.755 43.6587 338.731 42.6355 337.422 41.8981C336.132 41.1422 334.629 40.7643 332.915 40.7643C331.127 40.7643 329.541 41.1791 328.158 42.0087C326.794 42.8199 325.725 43.9169 324.95 45.2996C324.176 46.6638 323.78 48.1848 323.761 49.8625V56.8036C323.761 58.9053 324.148 60.7213 324.923 62.2515C325.716 63.7817 326.831 64.9616 328.269 65.7912C329.707 66.6208 331.412 67.0356 333.385 67.0356C334.694 67.0356 335.892 66.8513 336.98 66.4826C338.068 66.1138 338.999 65.5608 339.773 64.8233C340.547 64.0859 341.137 63.1825 341.543 62.1132L352.439 62.8322C351.885 65.4501 350.752 67.7362 349.037 69.6904C347.341 71.6262 345.147 73.138 342.455 74.2257C339.782 75.295 336.694 75.8296 333.191 75.8296Z" fill="white"/>
</svg>

<svg width="356" height="95" fill="none" xmlns="http://www.w3.org/2000/svg"><path d="M15.965 15.97h59.787a9.964 9.964 0 019.965 9.965v44.84a4.982 4.982 0 01-4.982 4.983H70.77a4.982 4.982 0 01-4.982-4.982V60.81a19.93 19.93 0 00-39.859 0v9.965a4.982 4.982 0 01-4.982 4.982h-9.965A4.982 4.982 0 016 70.776v-44.84a9.965 9.965 0 019.965-9.966" fill="#fff"/><path d="M15.965 15.97h59.787a9.964 9.964 0 019.965 9.965v44.84a4.982 4.982 0 01-4.982 4.983H70.77a4.982 4.982 0 01-4.982-4.982V60.81a19.93 19.93 0 00-39.859 0v9.965a4.982 4.982 0 01-4.982 4.982h-9.965A4.982 4.982 0 016 70.776v-44.84a9.965 9.965 0 019.965-9.966" stroke="#fff" stroke-width="11.269" stroke-linecap="round" stroke-linejoin="round"/><path d="M110.701 75V18.364h22.676c4.167 0 7.642.618 10.426 1.853 2.783 1.236 4.876 2.95 6.277 5.144 1.401 2.175 2.102 4.683 2.102 7.522 0 2.212-.443 4.157-1.328 5.835a11.453 11.453 0 01-3.65 4.093c-1.53 1.05-3.282 1.797-5.254 2.24v.553c2.157.092 4.176.7 6.056 1.825 1.899 1.124 3.438 2.7 4.618 4.729 1.18 2.01 1.77 4.406 1.77 7.19 0 3.005-.747 5.687-2.24 8.047-1.475 2.342-3.659 4.194-6.554 5.559-2.894 1.364-6.462 2.046-10.702 2.046h-24.197zm11.974-9.79h9.762c3.337 0 5.77-.636 7.3-1.908 1.531-1.29 2.296-3.005 2.296-5.143 0-1.567-.378-2.95-1.134-4.148-.756-1.199-1.834-2.139-3.236-2.821-1.382-.682-3.032-1.023-4.95-1.023h-10.038V65.21zm0-23.146h8.877c1.641 0 3.097-.286 4.369-.857 1.291-.59 2.305-1.42 3.042-2.49.756-1.068 1.134-2.35 1.134-3.843 0-2.046-.728-3.696-2.185-4.95-1.438-1.254-3.484-1.88-6.139-1.88h-9.098v14.02zM161.964 75V32.523h11.422v7.412h.442c.774-2.637 2.074-4.628 3.899-5.974 1.825-1.364 3.927-2.046 6.305-2.046.59 0 1.226.037 1.908.11.683.074 1.282.176 1.798.305v10.453c-.553-.166-1.318-.313-2.295-.442a20.62 20.62 0 00-2.683-.194c-1.733 0-3.281.378-4.646 1.134a8.347 8.347 0 00-3.207 3.097c-.775 1.328-1.162 2.858-1.162 4.59V75h-11.781zm31.865 0V32.523h11.78V75h-11.78zm5.918-47.952c-1.752 0-3.254-.58-4.508-1.742-1.235-1.18-1.853-2.59-1.853-4.231 0-1.623.618-3.015 1.853-4.176 1.254-1.18 2.756-1.77 4.508-1.77 1.751 0 3.245.59 4.48 1.77 1.253 1.161 1.88 2.553 1.88 4.176 0 1.64-.627 3.05-1.88 4.23-1.235 1.162-2.729 1.743-4.48 1.743zm30.952 48.643c-3.227 0-6.149-.83-8.767-2.489-2.599-1.677-4.664-4.138-6.194-7.383-1.512-3.263-2.268-7.264-2.268-12.002 0-4.867.784-8.914 2.351-12.14 1.567-3.245 3.65-5.67 6.249-7.273 2.618-1.623 5.485-2.434 8.601-2.434 2.378 0 4.36.406 5.946 1.217 1.603.793 2.894 1.788 3.871 2.987.996 1.18 1.752 2.341 2.268 3.484h.359V18.364h11.753V75h-11.615v-6.803h-.497c-.553 1.18-1.337 2.35-2.351 3.512-.995 1.143-2.295 2.093-3.899 2.849-1.586.755-3.521 1.133-5.807 1.133zm3.733-9.374c1.899 0 3.503-.517 4.812-1.549 1.327-1.05 2.341-2.517 3.042-4.397.719-1.88 1.078-4.084 1.078-6.61 0-2.525-.35-4.719-1.051-6.581-.7-1.862-1.714-3.3-3.042-4.314-1.327-1.014-2.94-1.521-4.839-1.521-1.936 0-3.568.526-4.895 1.576-1.327 1.051-2.332 2.508-3.014 4.37-.682 1.862-1.023 4.019-1.023 6.47 0 2.471.341 4.656 1.023 6.555.7 1.88 1.705 3.355 3.014 4.424 1.327 1.051 2.959 1.577 4.895 1.577zm49.259 25.497c-3.817 0-7.089-.526-9.818-1.577-2.71-1.032-4.867-2.442-6.471-4.23-1.604-1.789-2.645-3.799-3.125-6.03l10.896-1.465c.332.848.857 1.64 1.576 2.378.719.738 1.669 1.328 2.849 1.77 1.198.461 2.655.692 4.369.692 2.563 0 4.674-.627 6.333-1.881 1.678-1.235 2.516-3.31 2.516-6.222v-7.77h-.497c-.517 1.179-1.291 2.294-2.323 3.345-1.033 1.051-2.36 1.908-3.982 2.572-1.623.664-3.559.996-5.808.996-3.189 0-6.093-.738-8.711-2.213-2.599-1.493-4.673-3.77-6.222-6.83-1.53-3.08-2.295-6.97-2.295-11.67 0-4.812.783-8.831 2.35-12.057 1.567-3.227 3.651-5.642 6.25-7.246 2.618-1.604 5.485-2.406 8.601-2.406 2.378 0 4.369.406 5.973 1.217 1.604.793 2.894 1.788 3.871 2.987.996 1.18 1.761 2.341 2.296 3.484h.442v-7.135h11.698v42.892c0 3.613-.885 6.637-2.655 9.07-1.77 2.434-4.222 4.26-7.356 5.476-3.116 1.235-6.701 1.853-10.757 1.853zm.249-26.272c1.898 0 3.502-.47 4.811-1.41 1.328-.959 2.342-2.323 3.042-4.093.719-1.788 1.079-3.927 1.079-6.416 0-2.488-.351-4.645-1.051-6.47-.701-1.844-1.715-3.273-3.042-4.287-1.327-1.014-2.941-1.521-4.839-1.521-1.936 0-3.568.526-4.895 1.576-1.328 1.033-2.332 2.47-3.015 4.314-.682 1.844-1.023 3.973-1.023 6.388 0 2.452.341 4.573 1.023 6.36.701 1.77 1.706 3.144 3.015 4.121 1.327.959 2.959 1.438 4.895 1.438zm49.251 10.288c-4.369 0-8.13-.885-11.282-2.655-3.135-1.788-5.55-4.314-7.246-7.577-1.696-3.282-2.544-7.163-2.544-11.643 0-4.37.848-8.204 2.544-11.504 1.696-3.3 4.084-5.872 7.163-7.715 3.097-1.844 6.729-2.766 10.895-2.766 2.803 0 5.411.452 7.826 1.355a17.361 17.361 0 016.361 4.01c1.825 1.788 3.245 4.038 4.258 6.748 1.014 2.691 1.521 5.844 1.521 9.458v3.235H316.82v-7.3h24.778c0-1.697-.369-3.2-1.106-4.508a7.92 7.92 0 00-3.07-3.07c-1.29-.756-2.793-1.134-4.507-1.134-1.788 0-3.374.415-4.757 1.245a8.733 8.733 0 00-3.208 3.29c-.774 1.365-1.17 2.886-1.189 4.563v6.942c0 2.101.387 3.917 1.162 5.447.793 1.53 1.908 2.71 3.346 3.54 1.438.83 3.143 1.245 5.116 1.245 1.309 0 2.507-.185 3.595-.553 1.088-.37 2.019-.922 2.793-1.66.774-.737 1.364-1.64 1.77-2.71l10.896.72c-.554 2.617-1.687 4.903-3.402 6.857-1.696 1.936-3.89 3.448-6.582 4.536-2.673 1.069-5.761 1.604-9.264 1.604z" fill="#fff"/></svg>
